X:217
T: Die verkaufte Muellerin
N: Q0086P
O: Mitteleuropa, Deutschland (BRD) , Schleswig - Holstein, Dithmarschen
R: Ballade, Menschenhandel, Rettung, Hinrichtung
M: 4/4
L: 1/8
K: G
D2 | G2G2A2A2 | B2BAG2
GA | B2B2c2ce | d2dcB2
d2 | e2d2c2B2 | A4G2
d2 | e2d2c2B2 | A4G2

@@@ Tune index: 1272
